public/avatar/shoe/110.svg

<svg xmlns:xlink="http://www.w3.org/1999/xlink" height="38.3" width="36.05" xmlns="http://www.w3.org/2000/svg"><use height="22.85" transform="translate(7.9 9.1)" width="25.1" xlink:href="#a"/><defs><g id="a" fill-rule="evenodd"><path d="m.9 11.7-.15-.6q0-.4.45-.8.95-.7 2.75-.95l.55.2.2.5v.05l3.1-1.35.5-.05.4.3.45 1.35q.15.35-.25.65-6.6 4.2-13.85 5.55-5.6 1-8.6.15-2.8-1.35-2.25-3 .1-.45.6-.45l3.25-.2-.05-.35q0-.45.4-.75 1.65-1.4 5.05-.45.5.2.5.5l.05.2-.2.4.6.35Q-3.7 14 .9 11.7" fill="#303030" transform="translate(15.9 5.75)"/><path d="m2 12.1-.25-1.35 2.4-.8.4 1.1q.65.05 3.5-1.55l.2.55q-6.55 4.2-13.35 5.5-5.1.95-7.75.15-1.15-.45-1.7-1.4l2-.1 1.75-.35q-.4-1.4-.15-1.6.6-.45 2.45-.4l1.9.25-.35.65q-.15.55.95 1.1 1.75.95 8-1.75" fill="#b5b5b5" transform="translate(15.9 5.75)"/><path d="m-8.5 11.85 1.9.25-.35.95-2.4 2.95-3.5-.3q-1.15-.45-1.7-1.4l2-.1 1.75-.35q-.4-1.4-.15-1.6.6-.45 2.45-.4M2 12.1l-.25-1.35q0-.45 1.8-.75l-.4 2.85q-3.45 1.6-6.5 2.25l.65-1.3q4.45-1 4.7-1.7" fill="#fff" transform="translate(15.9 5.75)"/><path d="m4.15-1.2 3.1 6.65v.4l.05.45V7h-.05v.5l-.05.2v.1l-.05.05V8L5.9 9.05 4 10.1l-.55.2H3.3l-.05.05-1.7.7-3 .9-5.25.8h-3.05l-2.7-.45-1.25-.35-.5-.35-.15-.3-.1-.2-.15-.9v-.85l-.15-.3-.05-.25.05-.35.15-.4.4-.8 1.6-2L-7.05.1l1.95-1.25q1-.35 1.9-.8l2.25-.3 2.9.25 2.2.8" transform="translate(15.9 5.75)"/><path d="M-8.3 4.75q-1.5-.55-2.2-.25.05-.45 1.45-1.5.85-.7 3.25.35Q-3.5 4.5-3.95 4.8L-6 6.3q-.7-1-2.3-1.55" fill="#fff" transform="translate(15.9 5.75)"/><path d="M-7.75 5q.3-.95 2.5-1.3 1.65.9 1.3 1.1L-6 6.3q-.5-.75-1.75-1.3" fill="#ccc" transform="translate(15.9 5.75)"/><path d="M-10.95 7.1q-1.5-.55-2.15-.3.05-.45 1.4-1.5.95-.7 3.25.45 2.4 1.05 1.9 1.45L-8.6 8.7q-.7-.95-2.35-1.6" fill="#fff" transform="translate(15.9 5.75)"/><path d="M-11.3 7q2.25 0 2.8-1.3 2.45 1.1 1.95 1.5L-8.6 8.7q-.75-1.1-2.7-1.7" fill="#ccc" transform="translate(15.9 5.75)"/><path d="m-6-3.95.15-.2Q-5.2-5-1.55-5.5q5-.7 6.7.6.55.65 1.55 4.95.95 4.2.8 4.9l-.75.85q-1.3.7-4.45.8-3.5.15-5.25-.8l-.25-.2q-1.1-1.8-3.65-2.25l-2.95.15q-.5.25-.75-.2-.3-.45.1-.8l.5-.4Q-7.5.1-6-3.95" fill="#03102d" transform="translate(15.9 5.75)"/><path d="M-.55-4.65Q3.2-4.9 4.3-4q.5.5 1.35 4.35.8 3.85.65 4.4-.8.7-4 .8-3.4.15-4.65-.8Q-3.6 2.8-5.8 2.3l-2.9.15Q-6.25.1-4.95-3.4q.7-.9 4.4-1.25" fill="#0075d6" transform="translate(15.9 5.75)"/><path d="M6.3 4.75q-.65.55-3.35.8l-4.5-.35Q1.9 4.5 3.2 3.25 4.9 1.8 5.15-1.7q1.4 5.5 1.15 6.45" fill="#243c89" transform="translate(15.9 5.75)"/><path d="M-8.2-1.15q.35-1.25 2.5-1.35Q-1.1-2.95 0-.2v.4L-1.35 3q-.45.45-.85.1-2.5-1.8-5.85-1.55-.8.15-1-.25-.2-.25 0-.75l.85-1.7" fill="#03102d" transform="translate(15.9 5.75)"/><path d="m-7.2-1.05 2.85-.25Q-2.3-.95-1.3.1L-2 1.85Q-4.35.3-6.5.3l-1.35.05.65-1.4" fill="#fff" transform="translate(15.9 5.75)"/><path d="M-1.3.1-2 1.85q-1.25-.8-3-1.35 1.65-.75 2.3-1.3l1.4.9" fill="#ccc" transform="translate(15.9 5.75)"/><path d="M-13.7 7.6q.45 0 2.5.85-.55.9-1.3.75-1-.45-1.75-.6l.55-1" fill="#999" transform="translate(15.9 5.75)"/><path d="m1-4.55.65.15Q0-2.55-1.1-2.4l-3.2-.15q-1.15-.1-.45-.75l1.3-.85L1-4.55" fill="#8af1ff" transform="translate(15.9 5.75)"/><path d="M.65 9.7q-5.15 1.6-8.95 1.85 8.6-1.8 14.95-5.5v.45q-.5 1.45-6 3.2" fill="#606060" transform="translate(15.9 5.75)"/></g></defs></svg>

<?xml version="1.0" encoding="UTF-8" standalone="no"?>
<svg xmlns:xlink="http://www.w3.org/1999/xlink" height="38.3px" width="36.05px" xmlns="http://www.w3.org/2000/svg">
  <g transform="matrix(1.0, 0.0, 0.0, 1.0, 23.8, 14.85)">
    <use height="22.85" transform="matrix(1.0, 0.0, 0.0, 1.0, -15.9, -5.75)" width="25.1" xlink:href="#shape0"/>
  </g>
  <defs>
    <g id="shape0" transform="matrix(1.0, 0.0, 0.0, 1.0, 15.9, 5.75)">
      <path d="M0.9 11.7 L0.75 11.1 Q0.75 10.7 1.2 10.3 2.15 9.6 3.95 9.35 L4.5 9.55 4.7 10.05 4.7 10.1 7.8 8.75 8.3 8.7 8.7 9.0 9.15 10.35 Q9.3 10.7 8.9 11.0 2.3 15.2 -4.95 16.55 -10.55 17.55 -13.55 16.7 -16.35 15.35 -15.8 13.7 -15.7 13.25 -15.2 13.25 L-11.95 13.05 -12.0 12.7 Q-12.0 12.25 -11.6 11.95 -9.95 10.55 -6.55 11.5 -6.05 11.7 -6.05 12.0 L-6.0 12.2 -6.2 12.6 -5.6 12.95 Q-3.7 14.0 0.9 11.7" fill="#303030" fill-rule="evenodd" stroke="none"/>
      <path d="M2.0 12.1 L1.75 10.75 4.15 9.95 4.55 11.05 Q5.2 11.1 8.05 9.5 L8.25 10.05 Q1.7 14.25 -5.1 15.55 -10.2 16.5 -12.85 15.7 -14.0 15.25 -14.55 14.3 L-12.55 14.2 -10.8 13.85 Q-11.2 12.45 -10.95 12.25 -10.35 11.8 -8.5 11.85 L-6.6 12.1 -6.95 12.75 Q-7.1 13.3 -6.0 13.85 -4.25 14.8 2.0 12.1" fill="#b5b5b5" fill-rule="evenodd" stroke="none"/>
      <path d="M-8.5 11.85 L-6.6 12.1 -6.95 13.05 -9.35 16.0 -12.85 15.7 Q-14.0 15.25 -14.55 14.3 L-12.55 14.2 -10.8 13.85 Q-11.2 12.45 -10.95 12.25 -10.35 11.8 -8.5 11.85" fill="#ffffff" fill-rule="evenodd" stroke="none"/>
      <path d="M2.0 12.1 L1.75 10.75 Q1.75 10.3 3.55 10.0 L3.15 12.85 Q-0.3 14.45 -3.35 15.1 L-2.7 13.8 Q1.75 12.8 2.0 12.1" fill="#ffffff" fill-rule="evenodd" stroke="none"/>
      <path d="M4.15 -1.2 L7.25 5.45 7.25 5.85 7.3 6.3 7.3 7.0 7.25 7.0 7.25 7.5 7.2 7.7 7.2 7.8 7.15 7.85 7.15 8.0 5.9 9.05 4.0 10.1 3.45 10.3 3.3 10.3 3.25 10.35 1.55 11.05 -1.45 11.95 -6.7 12.75 -9.75 12.75 -12.45 12.3 -13.7 11.95 -14.2 11.6 -14.35 11.3 -14.45 11.1 -14.6 10.2 -14.6 9.35 -14.75 9.05 -14.8 8.8 -14.75 8.45 -14.6 8.05 -14.2 7.25 -12.6 5.25 -7.05 0.1 -5.1 -1.15 Q-4.1 -1.5 -3.2 -1.95 L-0.95 -2.25 1.95 -2.0 4.15 -1.2" fill="#000000" fill-rule="evenodd" stroke="none"/>
      <path d="M-8.3 4.75 Q-9.8 4.2 -10.5 4.5 -10.45 4.05 -9.05 3.0 -8.2 2.3 -5.8 3.35 -3.5 4.5 -3.95 4.8 L-6.0 6.3 Q-6.7 5.3 -8.3 4.75" fill="#ffffff" fill-rule="evenodd" stroke="none"/>
      <path d="M-7.75 5.0 Q-7.45 4.05 -5.25 3.7 -3.6 4.6 -3.95 4.8 L-6.0 6.3 Q-6.5 5.55 -7.75 5.0" fill="#cccccc" fill-rule="evenodd" stroke="none"/>
      <path d="M-10.95 7.1 Q-12.45 6.55 -13.1 6.8 -13.05 6.35 -11.7 5.3 -10.75 4.6 -8.45 5.75 -6.05 6.8 -6.55 7.2 L-8.6 8.7 Q-9.3 7.75 -10.95 7.1" fill="#ffffff" fill-rule="evenodd" stroke="none"/>
      <path d="M-11.3 7.0 Q-9.05 7.0 -8.5 5.7 -6.05 6.8 -6.55 7.2 L-8.6 8.7 Q-9.35 7.6 -11.3 7.0" fill="#cccccc" fill-rule="evenodd" stroke="none"/>
      <path d="M-6.0 -3.95 L-5.85 -4.15 Q-5.2 -5.0 -1.55 -5.5 3.45 -6.2 5.15 -4.9 5.7 -4.25 6.7 0.05 7.65 4.25 7.5 4.95 L6.75 5.8 Q5.45 6.5 2.3 6.6 -1.2 6.75 -2.95 5.8 L-3.2 5.6 Q-4.3 3.8 -6.85 3.35 L-9.8 3.5 Q-10.3 3.75 -10.55 3.3 -10.85 2.85 -10.45 2.5 L-9.95 2.1 Q-7.5 0.1 -6.0 -3.95" fill="#03102d" fill-rule="evenodd" stroke="none"/>
      <path d="M-0.55 -4.65 Q3.2 -4.9 4.3 -4.0 4.8 -3.5 5.65 0.35 6.45 4.2 6.3 4.75 5.5 5.45 2.3 5.55 -1.1 5.7 -2.35 4.75 -3.6 2.8 -5.8 2.3 L-8.7 2.45 Q-6.25 0.1 -4.95 -3.4 -4.25 -4.3 -0.55 -4.65" fill="#0075d6" fill-rule="evenodd" stroke="none"/>
      <path d="M6.3 4.75 Q5.65 5.3 2.95 5.55 L-1.55 5.2 Q1.9 4.5 3.2 3.25 4.9 1.8 5.15 -1.7 6.55 3.8 6.3 4.75" fill="#243c89" fill-rule="evenodd" stroke="none"/>
      <path d="M-8.2 -1.15 Q-7.85 -2.4 -5.7 -2.5 -1.1 -2.95 0.0 -0.2 L0.0 0.2 -1.35 3.0 Q-1.8 3.45 -2.2 3.1 -4.7 1.3 -8.05 1.55 -8.85 1.7 -9.05 1.3 -9.25 1.05 -9.05 0.55 L-8.2 -1.15" fill="#03102d" fill-rule="evenodd" stroke="none"/>
      <path d="M-7.2 -1.05 L-4.35 -1.3 Q-2.3 -0.95 -1.3 0.1 L-2.0 1.85 Q-4.35 0.3 -6.5 0.3 L-7.85 0.35 -7.2 -1.05" fill="#ffffff" fill-rule="evenodd" stroke="none"/>
      <path d="M-1.3 0.1 L-2.0 1.85 Q-3.25 1.05 -5.0 0.5 -3.35 -0.25 -2.7 -0.8 L-1.3 0.1" fill="#cccccc" fill-rule="evenodd" stroke="none"/>
      <path d="M-13.7 7.6 Q-13.25 7.6 -11.2 8.45 -11.75 9.35 -12.5 9.2 -13.5 8.75 -14.25 8.6 L-13.7 7.6" fill="#999999" fill-rule="evenodd" stroke="none"/>
      <path d="M1.0 -4.55 L1.65 -4.4 Q0.0 -2.55 -1.1 -2.4 L-4.3 -2.55 Q-5.45 -2.65 -4.75 -3.3 L-3.45 -4.15 1.0 -4.55" fill="#8af1ff" fill-rule="evenodd" stroke="none"/>
      <path d="M0.65 9.7 Q-4.5 11.3 -8.3 11.55 0.3 9.75 6.65 6.05 L6.65 6.5 Q6.15 7.95 0.65 9.7" fill="#606060" fill-rule="evenodd" stroke="none"/>
    </g>
  </defs>
</svg>
